img/icon-barf/bones.svg

<svg width="20" height="20" viewBox="0 0 20 20" fill="none" xmlns="http://www.w3.org/2000/svg">
<path d="M19.2808 3.15669C18.8223 2.69814 18.1874 2.43359 17.5348 2.43359C17.5348 1.79867 17.2703 1.18138 16.8117 0.722831C15.8593 -0.22955 14.2897 -0.22955 13.3373 0.722831C12.5083 1.53412 12.4025 2.78632 12.9669 3.7387L3.77819 12.9627C2.84344 12.3983 1.55597 12.4865 0.727042 13.3331C-0.225339 14.2854 -0.225339 15.8551 0.727042 16.8075C1.1856 17.266 1.82052 17.5306 2.47307 17.5306C2.47307 18.1832 2.73762 18.8181 3.19618 19.2766C4.14856 20.229 5.71822 20.229 6.6706 19.2766C7.58771 18.3595 7.62299 16.9133 6.84697 15.9609L15.9651 6.80749C16.9352 7.5835 18.3814 7.53059 19.2808 6.63112C20.2332 5.67874 20.2332 4.10908 19.2808 3.15669ZM18.4519 5.8022C17.9581 6.29603 17.0939 6.31366 16.5824 5.8022C16.5119 5.73165 16.4766 5.69638 16.4237 5.62583C16.2297 5.34364 15.824 5.30837 15.5771 5.55528C15.5595 5.57292 5.6124 15.5553 5.57713 15.6082C5.36549 15.8727 5.40076 16.2608 5.68295 16.4548C6.33551 16.9309 6.40605 17.901 5.84168 18.4477C5.34785 18.9415 4.51893 18.9415 4.0251 18.4477C3.67237 18.095 3.54891 17.513 3.74292 17.0191C3.93692 16.5429 3.46073 16.0668 2.98454 16.2608C2.50835 16.4548 1.92634 16.3313 1.55597 15.9786C0.762315 15.1849 1.29142 13.774 2.49071 13.774C2.84344 13.774 3.17854 13.9151 3.42545 14.1444C3.65473 14.3736 4.0251 14.3736 4.25438 14.1444C14.8717 3.47415 14.2191 4.16199 14.2897 4.02089C14.3955 3.79162 14.3426 3.52706 14.1662 3.3507C13.6724 2.85687 13.6724 2.02795 14.1662 1.53412C14.66 1.04029 15.4889 1.04029 15.9828 1.53412C16.3531 1.90449 16.459 2.43359 16.265 2.90978C16.2121 3.03324 16.2121 3.19197 16.265 3.33306C16.3884 3.63288 16.7235 3.77398 17.0233 3.66816C17.4995 3.47415 18.0815 3.59761 18.4519 3.95035C18.9634 4.47945 18.9634 5.29073 18.4519 5.8022Z" fill="#961914"/>
<path d="M6.4727 7.23126C6.70198 7.46053 7.07235 7.46053 7.30163 7.23126C7.5309 7.00198 7.5309 6.63161 7.30163 6.40233L5.30868 4.40938C5.0794 4.18011 4.70903 4.18011 4.47976 4.40938C4.25048 4.63866 4.25048 5.00903 4.47976 5.23831L6.4727 7.23126Z" fill="#961914"/>
<path d="M2.18699 9.33004H4.99122C5.30868 9.33004 5.57324 9.06549 5.57324 8.74803C5.57324 8.43057 5.30868 8.16602 4.99122 8.16602H2.18699C1.86953 8.16602 1.60498 8.43057 1.60498 8.74803C1.60498 9.08312 1.86953 9.33004 2.18699 9.33004Z" fill="#961914"/>
<path d="M8.8184 5.52044C9.13586 5.52044 9.40041 5.25589 9.40041 4.93843V2.11656C9.40041 1.7991 9.13586 1.53455 8.8184 1.53455C8.50094 1.53455 8.23639 1.7991 8.23639 2.11656V4.93843C8.23639 5.25589 8.4833 5.52044 8.8184 5.52044Z" fill="#961914"/>
<path d="M13.5979 12.7691C13.3687 12.5398 12.9983 12.5398 12.769 12.7691C12.5397 12.9984 12.5397 13.3688 12.769 13.598L14.7619 15.591C14.8678 15.6968 15.0265 15.7674 15.1676 15.7674C15.6791 15.7674 15.9436 15.1324 15.5732 14.7621L13.5979 12.7691Z" fill="#961914"/>
<path d="M17.8836 10.6704H15.0617C14.7443 10.6704 14.4797 10.935 14.4797 11.2524C14.4797 11.5699 14.7443 11.8344 15.0617 11.8344H17.866C18.1834 11.8344 18.448 11.5699 18.448 11.2524C18.4656 10.935 18.2011 10.6704 17.8836 10.6704Z" fill="#961914"/>
<path d="M11.2522 14.4799C10.9348 14.4799 10.6702 14.7444 10.6702 15.0619V17.8661C10.6702 18.1836 10.9348 18.4481 11.2522 18.4481C11.5697 18.4481 11.8342 18.1836 11.8342 17.8661V15.0619C11.8342 14.7444 11.5697 14.4799 11.2522 14.4799Z" fill="#961914"/>
</svg>

<svg width="20" height="20" fill="none" xmlns="http://www.w3.org/2000/svg"><path d="M19.28 3.157a2.484 2.484 0 00-1.745-.723c0-.635-.265-1.253-.723-1.711a2.47 2.47 0 00-3.475 0c-.829.811-.934 2.063-.37 3.016l-9.189 9.224c-.935-.565-2.222-.476-3.051.37a2.47 2.47 0 000 3.475 2.485 2.485 0 001.746.723c0 .652.265 1.287.723 1.746a2.47 2.47 0 003.475 0 2.488 2.488 0 00.176-3.316l9.118-9.154c.97.776 2.416.724 3.316-.176a2.47 2.47 0 000-3.474zm-.828 2.645c-.494.494-1.358.512-1.87 0a1.474 1.474 0 01-.158-.176.552.552 0 00-.847-.07c-.018.017-9.965 10-10 10.052-.212.265-.176.653.106.847.653.476.723 1.446.159 1.993a1.299 1.299 0 01-1.817 0c-.353-.353-.476-.935-.282-1.429a.582.582 0 00-.758-.758 1.374 1.374 0 01-1.429-.282c-.794-.794-.265-2.205.935-2.205.352 0 .688.141.934.37.23.23.6.23.83 0C14.871 3.474 14.218 4.162 14.29 4.021a.593.593 0 00-.124-.67 1.299 1.299 0 010-1.817 1.299 1.299 0 011.817 0c.37.37.476.9.282 1.376a.584.584 0 000 .423.6.6 0 00.758.335 1.374 1.374 0 011.429.282 1.31 1.31 0 010 1.852z" fill="#961914"/><path d="M6.473 7.231a.585.585 0 10.829-.829L5.309 4.41a.585.585 0 10-.83.83l1.995 1.99zM2.187 9.33h2.804a.587.587 0 00.582-.582.587.587 0 00-.582-.582H2.187a.587.587 0 00-.582.582c0 .335.265.582.582.582zm6.631-3.81a.587.587 0 00.582-.582V2.117a.587.587 0 00-.582-.582.587.587 0 00-.582.582v2.821c0 .318.247.582.582.582zm4.78 7.25a.585.585 0 10-.829.828l1.993 1.993a.608.608 0 00.406.176c.511 0 .776-.635.405-1.005l-1.975-1.993zm4.286-2.1h-2.822a.587.587 0 00-.582.582c0 .318.264.582.582.582h2.804a.587.587 0 00.582-.582.561.561 0 00-.564-.582zm-6.632 3.81a.587.587 0 00-.582.582v2.804c0 .318.265.582.582.582a.587.587 0 00.582-.582v-2.804a.587.587 0 00-.582-.582z" fill="#961914"/></svg>
